build/images/main/main-prize-underline-xs.svg

<svg width="148" height="7" viewBox="0 0 148 7" fill="none" xmlns="http://www.w3.org/2000/svg">
<g clip-path="url(#clip0_526_1815)">
<g clip-path="url(#clip1_526_1815)">
<path d="M4.79728 5.45033C4.15153 6.11648 3.28596 6.48914 2.38486 6.48895H0L4.48003 1.74179C4.85425 1.34492 5.2986 1.03011 5.78767 0.815364C6.27675 0.600616 6.80096 0.49014 7.33034 0.490252H9.59639L4.79728 5.45033ZM15.7833 0.490252H13.5173C12.9879 0.490246 12.4637 0.600771 11.9746 0.815512C11.4856 1.03025 11.0412 1.34501 10.6669 1.74179L6.18569 6.49025H8.57054C9.47167 6.49057 10.3373 6.11789 10.983 5.45163L15.7833 0.490252ZM21.969 0.490252H19.7029C19.1736 0.490246 18.6494 0.600771 18.1603 0.815512C17.6713 1.03025 17.2269 1.34501 16.8526 1.74179L12.3714 6.49025H14.7538C15.6549 6.49057 16.5205 6.11789 17.1662 5.45163L21.969 0.490252ZM28.1547 0.490252H25.8886C25.3593 0.490246 24.8351 0.600771 24.346 0.815512C23.857 1.03025 23.4126 1.34501 23.0383 1.74179L18.5571 6.49025H20.9413C21.8424 6.49057 22.708 6.11789 23.3537 5.45163L28.1547 0.490252ZM34.3404 0.490252H32.0743C31.5449 0.49014 31.0207 0.600616 30.5316 0.815364C30.0426 1.03011 29.5982 1.34492 29.224 1.74179L24.7385 6.49025H27.1227C28.0238 6.49057 28.8894 6.11789 29.5351 5.45163L34.3404 0.490252ZM40.526 0.490252H38.26C37.7306 0.49014 37.2064 0.600616 36.7173 0.815364C36.2283 1.03011 35.7839 1.34492 35.4097 1.74179L30.9229 6.49025H33.3072C34.2083 6.49057 35.0739 6.11789 35.7196 5.45163L40.526 0.490252ZM46.7117 0.490252H44.4457C43.9146 0.488687 43.3884 0.598458 42.8974 0.813247C42.4065 1.02804 41.9604 1.3436 41.585 1.74179L37.1074 6.49025H39.4922C40.3933 6.49043 41.2589 6.11778 41.9046 5.45163L46.7117 0.490252ZM52.8974 0.490252H50.6314C50.1002 0.488687 49.5741 0.598458 49.0831 0.813247C48.5921 1.02804 48.1461 1.3436 47.7706 1.74179L43.2918 6.49025H45.6767C46.5778 6.49043 47.4434 6.11778 48.0891 5.45163L52.8974 0.490252ZM59.0831 0.490252H56.8171C56.2859 0.488794 55.7598 0.598613 55.2688 0.813396C54.7779 1.02818 54.3318 1.34369 53.9563 1.74179L49.4763 6.49025H51.8612C52.7623 6.49043 53.6278 6.11778 54.2736 5.45163L59.0831 0.490252ZM65.2688 0.490252H63.0027C62.4716 0.488652 61.9454 0.598406 61.4544 0.813197C60.9635 1.02799 60.5174 1.34357 60.142 1.74179L55.6608 6.49025H58.0456C58.9467 6.49057 59.8124 6.11789 60.458 5.45163L65.2688 0.490252ZM71.4545 0.490252H69.1884C68.6573 0.488652 68.1311 0.598406 67.6401 0.813197C67.1492 1.02799 66.7031 1.34357 66.3277 1.74179L61.8477 6.49025H64.2319C65.133 6.49057 65.9987 6.11789 66.6443 5.45163L71.4545 0.490252ZM77.6402 0.490252H75.3741C74.843 0.488687 74.3168 0.598458 73.8258 0.813247C73.3349 1.02804 72.8888 1.3436 72.5134 1.74179L68.0303 6.49025H70.4145C71.3157 6.49057 72.1813 6.11789 72.827 5.45163L77.6402 0.490252ZM83.8258 0.490252H81.5598C81.0304 0.49014 80.5062 0.600616 80.0171 0.815364C79.5281 1.03011 79.0837 1.34492 78.7095 1.74179L74.2295 6.49025H76.6143C77.5153 6.49061 78.3807 6.11791 79.0261 5.45163L83.8258 0.490252ZM90.0115 0.490252H87.7455C87.2161 0.49014 86.6919 0.600616 86.2028 0.815364C85.7137 1.03011 85.2694 1.34492 84.8952 1.74179L80.4151 6.49025H82.8C83.7011 6.49043 84.5667 6.11778 85.2124 5.45163L90.0115 0.490252ZM96.1972 0.490252H93.9312C93.4018 0.490211 92.8776 0.600719 92.3885 0.815463C91.8995 1.03021 91.4551 1.34498 91.0809 1.74179L86.6008 6.49025H88.9857C89.8868 6.49043 90.7524 6.11778 91.3981 5.45163L96.1972 0.490252ZM102.383 0.490252H100.117C99.5875 0.490246 99.0633 0.600771 98.5742 0.815512C98.0852 1.03025 97.6408 1.34501 97.2665 1.74179L92.7865 6.49025H95.1714C96.0725 6.49043 96.938 6.11778 97.5838 5.45163L102.383 0.490252ZM108.569 0.490252H106.303C105.773 0.49019 105.249 0.600692 104.76 0.815439C104.271 1.03019 103.827 1.34497 103.453 1.74179L98.9526 6.49025H101.337C102.239 6.49057 103.104 6.11789 103.75 5.45163L108.569 0.490252ZM114.754 0.490252H112.488C111.959 0.49014 111.435 0.600616 110.946 0.815364C110.456 1.03011 110.012 1.34492 109.638 1.74179L105.157 6.49025H107.542C108.443 6.49057 109.309 6.11789 109.955 5.45163L114.754 0.490252ZM120.94 0.490252H118.674C118.145 0.49014 117.62 0.600616 117.131 0.815364C116.642 1.03011 116.198 1.34492 115.824 1.74179L111.344 6.49025H113.728C114.629 6.49057 115.495 6.11789 116.14 5.45163L120.94 0.490252ZM127.126 0.490252H124.86C124.33 0.49014 123.806 0.600616 123.317 0.815364C122.828 1.03011 122.384 1.34492 122.009 1.74179L117.529 6.49025H119.914C120.815 6.49061 121.681 6.11791 122.326 5.45163L127.126 0.490252ZM133.311 0.490252H131.045C130.516 0.490211 129.992 0.600719 129.503 0.815463C129.014 1.03021 128.569 1.34498 128.195 1.74179L123.715 6.49025H126.1C127.001 6.49043 127.866 6.11778 128.512 5.45163L133.311 0.490252Z" fill="white"/>
</g>
<g clip-path="url(#clip2_526_1815)">
<path d="M135.508 5.45033C134.862 6.11648 133.997 6.48914 133.096 6.48895H130.711L135.191 1.74179C135.565 1.34492 136.01 1.03011 136.499 0.815364C136.988 0.600616 137.512 0.49014 138.041 0.490252H140.307L135.508 5.45033ZM146.494 0.490252H144.228C143.699 0.490246 143.175 0.600771 142.686 0.815512C142.197 1.03025 141.752 1.34501 141.378 1.74179L136.897 6.49025H139.281C140.183 6.49057 141.048 6.11789 141.694 5.45163L146.494 0.490252ZM158.866 0.490252H156.6C156.07 0.490246 155.546 0.600771 155.057 0.815512C154.568 1.03025 154.124 1.34501 153.749 1.74179L149.268 6.49025H151.652C152.553 6.49057 153.419 6.11789 154.065 5.45163L158.866 0.490252ZM165.051 0.490252H162.785C162.256 0.49014 161.732 0.600616 161.243 0.815364C160.754 1.03011 160.309 1.34492 159.935 1.74179L155.449 6.49025H157.834C158.735 6.49057 159.6 6.11789 160.246 5.45163L165.051 0.490252ZM171.237 0.490252H168.971C168.442 0.49014 167.917 0.600616 167.428 0.815364C166.939 1.03011 166.495 1.34492 166.121 1.74179L161.634 6.49025H164.018C164.919 6.49057 165.785 6.11789 166.431 5.45163L171.237 0.490252ZM177.423 0.490252H175.157C174.625 0.488687 174.099 0.598458 173.608 0.813247C173.117 1.02804 172.671 1.3436 172.296 1.74179L167.818 6.49025H170.203C171.104 6.49043 171.97 6.11778 172.616 5.45163L177.423 0.490252ZM183.608 0.490252H181.342C180.811 0.488687 180.285 0.598458 179.794 0.813247C179.303 1.02804 178.857 1.3436 178.482 1.74179L174.003 6.49025H176.388C177.289 6.49043 178.154 6.11778 178.8 5.45163L183.608 0.490252ZM189.794 0.490252H187.528C186.997 0.488794 186.471 0.598613 185.98 0.813396C185.489 1.02818 185.043 1.34369 184.667 1.74179L180.187 6.49025H182.572C183.473 6.49043 184.339 6.11778 184.985 5.45163L189.794 0.490252ZM195.98 0.490252H193.714C193.183 0.488652 192.656 0.598406 192.165 0.813197C191.674 1.02799 191.228 1.34357 190.853 1.74179L186.372 6.49025H188.757C189.658 6.49057 190.523 6.11789 191.169 5.45163L195.98 0.490252ZM202.165 0.490252H199.899C199.368 0.488652 198.842 0.598406 198.351 0.813197C197.86 1.02799 197.414 1.34357 197.039 1.74179L192.559 6.49025H194.943C195.844 6.49057 196.71 6.11789 197.355 5.45163L202.165 0.490252ZM208.351 0.490252H206.085C205.554 0.488687 205.028 0.598458 204.537 0.813247C204.046 1.02804 203.6 1.3436 203.224 1.74179L198.741 6.49025H201.125C202.027 6.49057 202.892 6.11789 203.538 5.45163L208.351 0.490252ZM214.537 0.490252H212.271C211.741 0.49014 211.217 0.600616 210.728 0.815364C210.239 1.03011 209.795 1.34492 209.42 1.74179L204.94 6.49025H207.325C208.226 6.49061 209.092 6.11791 209.737 5.45163L214.537 0.490252ZM220.722 0.490252H218.456C217.927 0.49014 217.403 0.600616 216.914 0.815364C216.425 1.03011 215.98 1.34492 215.606 1.74179L211.126 6.49025H213.511C214.412 6.49043 215.278 6.11778 215.923 5.45163L220.722 0.490252ZM226.908 0.490252H224.642C224.113 0.490211 223.589 0.600719 223.099 0.815463C222.61 1.03021 222.166 1.34498 221.792 1.74179L217.312 6.49025H219.697C220.598 6.49043 221.463 6.11778 222.109 5.45163L226.908 0.490252ZM233.094 0.490252H230.828C230.298 0.490246 229.774 0.600771 229.285 0.815512C228.796 1.03025 228.352 1.34501 227.977 1.74179L223.497 6.49025H225.882C226.783 6.49043 227.649 6.11778 228.295 5.45163L233.094 0.490252ZM239.28 0.490252H237.013C236.484 0.49019 235.96 0.600692 235.471 0.815439C234.982 1.03019 234.538 1.34497 234.164 1.74179L229.664 6.49025H232.048C232.95 6.49057 233.815 6.11789 234.461 5.45163L239.28 0.490252ZM245.465 0.490252H243.199C242.67 0.49014 242.146 0.600616 241.656 0.815364C241.167 1.03011 240.723 1.34492 240.349 1.74179L235.868 6.49025H238.253C239.154 6.49057 240.02 6.11789 240.665 5.45163L245.465 0.490252ZM251.651 0.490252H249.385C248.855 0.49014 248.331 0.600616 247.842 0.815364C247.353 1.03011 246.909 1.34492 246.535 1.74179L242.055 6.49025H244.439C245.34 6.49057 246.205 6.11789 246.851 5.45163L251.651 0.490252ZM257.837 0.490252H255.571C255.041 0.49014 254.517 0.600616 254.028 0.815364C253.539 1.03011 253.094 1.34492 252.72 1.74179L248.24 6.49025H250.625C251.526 6.49061 252.391 6.11791 253.037 5.45163L257.837 0.490252ZM264.022 0.490252H261.756C261.227 0.490211 260.703 0.600719 260.214 0.815463C259.725 1.03021 259.28 1.34498 258.906 1.74179L254.426 6.49025H256.811C257.712 6.49043 258.577 6.11778 259.223 5.45163L264.022 0.490252Z" fill="white"/>
</g>
</g>
<defs>
<clipPath id="clip0_526_1815">
<rect width="148" height="7" fill="white"/>
</clipPath>
<clipPath id="clip1_526_1815">
<rect width="133.29" height="6" fill="white" transform="translate(0 0.490234)"/>
</clipPath>
<clipPath id="clip2_526_1815">
<rect width="133.29" height="6" fill="white" transform="translate(130.711 0.490234)"/>
</clipPath>
</defs>
</svg>

<svg width="148" height="7" fill="none" xmlns="http://www.w3.org/2000/svg"><g clip-path="url(#clip0_526_1815)"><g clip-path="url(#clip1_526_1815)"><path d="M4.797 5.45a3.359 3.359 0 01-2.412 1.04H0l4.48-4.747A4.022 4.022 0 015.788.815 3.832 3.832 0 017.33.49h2.266L4.797 5.45zM15.783.49h-2.266c-.53 0-1.053.11-1.542.326-.49.214-.934.529-1.308.926L6.186 6.49H8.57c.9 0 1.766-.372 2.412-1.038l4.8-4.962zm6.186 0h-2.266c-.53 0-1.054.11-1.543.326a4.003 4.003 0 00-1.307.926L12.37 6.49h2.383c.9 0 1.766-.372 2.412-1.038L21.97.49zm6.186 0h-2.266c-.53 0-1.054.11-1.543.326a4.018 4.018 0 00-1.308.926l-4.48 4.748h2.383c.901 0 1.767-.372 2.413-1.038l4.8-4.962zm6.185 0h-2.266c-.53 0-1.053.11-1.542.325-.49.215-.934.53-1.308.927L24.738 6.49h2.385c.9 0 1.766-.372 2.412-1.038L34.34.49zm6.186 0H38.26c-.53 0-1.054.11-1.543.325-.489.215-.933.53-1.307.927L30.923 6.49h2.384c.901 0 1.767-.372 2.413-1.038L40.526.49zm6.186 0h-2.266a3.832 3.832 0 00-1.549.323c-.49.215-.937.53-1.312.929L37.107 6.49h2.385c.901 0 1.767-.372 2.413-1.038L46.712.49zm6.185 0h-2.266a3.831 3.831 0 00-1.548.323c-.49.215-.937.53-1.312.929L43.29 6.49h2.386c.9 0 1.766-.372 2.412-1.038L52.897.49zm6.186 0h-2.266a3.833 3.833 0 00-1.548.323c-.491.215-.937.53-1.313.929l-4.48 4.748h2.385c.901 0 1.767-.372 2.413-1.038L59.084.49zm6.186 0h-2.266a3.831 3.831 0 00-1.549.323 4.02 4.02 0 00-1.312.929L55.661 6.49h2.385c.9 0 1.766-.372 2.412-1.038L65.268.49zm6.185 0h-2.266a3.831 3.831 0 00-1.548.323 4.02 4.02 0 00-1.312.929l-4.48 4.748h2.384c.901 0 1.767-.372 2.412-1.038L71.454.49zm6.186 0h-2.266a3.832 3.832 0 00-1.548.323c-.491.215-.937.53-1.313.929L68.03 6.49h2.385c.9 0 1.766-.372 2.412-1.038L77.64.49zm6.186 0H81.56c-.53 0-1.054.11-1.543.325-.489.215-.933.53-1.307.927L74.23 6.49h2.384c.901 0 1.767-.372 2.412-1.038l4.8-4.962zm6.186 0h-2.266c-.53 0-1.054.11-1.543.325-.49.215-.934.53-1.308.927l-4.48 4.748H82.8c.901 0 1.767-.372 2.412-1.038l4.8-4.962zm6.185 0h-2.266c-.53 0-1.053.11-1.543.325-.489.215-.933.53-1.307.927L86.6 6.49h2.385c.9 0 1.766-.372 2.412-1.038l4.8-4.962zm6.186 0h-2.266c-.53 0-1.054.11-1.543.326a4.018 4.018 0 00-1.308.926l-4.48 4.748h2.385c.901 0 1.767-.372 2.413-1.038L102.383.49zm6.186 0h-2.266c-.53 0-1.054.11-1.543.325-.489.215-.933.53-1.307.927l-4.5 4.748h2.384a3.36 3.36 0 002.413-1.038L108.569.49zm6.185 0h-2.266a3.83 3.83 0 00-1.542.325c-.49.215-.934.53-1.308.927l-4.481 4.748h2.385a3.36 3.36 0 002.413-1.038L114.754.49zm6.186 0h-2.266c-.529 0-1.054.11-1.543.325-.489.215-.933.53-1.307.927l-4.48 4.748h2.384c.901 0 1.767-.372 2.412-1.038l4.8-4.962zm6.186 0h-2.266c-.53 0-1.054.11-1.543.325-.489.215-.933.53-1.308.927l-4.48 4.748h2.385c.901 0 1.767-.372 2.412-1.038l4.8-4.962zm6.185 0h-2.266c-.529 0-1.053.11-1.542.325-.489.215-.934.53-1.308.927l-4.48 4.748h2.385c.901 0 1.766-.372 2.412-1.038L133.311.49z" fill="#fff"/></g><g clip-path="url(#clip2_526_1815)"><path d="M135.508 5.45a3.358 3.358 0 01-2.412 1.039h-2.385l4.48-4.747a4.022 4.022 0 011.308-.927 3.83 3.83 0 011.542-.325h2.266l-4.799 4.96zM146.494.49h-2.266c-.529 0-1.053.11-1.542.326a4.007 4.007 0 00-1.308.926l-4.481 4.748h2.384a3.36 3.36 0 002.413-1.038l4.8-4.962zm12.372 0H156.6c-.53 0-1.054.11-1.543.326a4.018 4.018 0 00-1.308.926l-4.481 4.748h2.384a3.36 3.36 0 002.413-1.038L158.866.49zm6.185 0h-2.266a3.83 3.83 0 00-1.542.325c-.489.215-.934.53-1.308.927l-4.486 4.748h2.385c.901 0 1.766-.372 2.412-1.038L165.051.49zm6.186 0h-2.266c-.529 0-1.054.11-1.543.325-.489.215-.933.53-1.307.927l-4.487 4.748h2.384a3.36 3.36 0 002.413-1.038L171.237.49zm6.186 0h-2.266a3.832 3.832 0 00-1.549.323c-.491.215-.937.53-1.312.929l-4.478 4.748h2.385a3.36 3.36 0 002.413-1.038L177.423.49zm6.185 0h-2.266a3.83 3.83 0 00-1.548.323c-.491.215-.937.53-1.312.929l-4.479 4.748h2.385c.901 0 1.766-.372 2.412-1.038L183.608.49zm6.186 0h-2.266a3.833 3.833 0 00-1.548.323 4.03 4.03 0 00-1.313.929l-4.48 4.748h2.385a3.36 3.36 0 002.413-1.038L189.794.49zm6.186 0h-2.266a3.835 3.835 0 00-1.549.323c-.491.215-.937.53-1.312.929l-4.481 4.748h2.385c.901 0 1.766-.372 2.412-1.038L195.98.49zm6.185 0h-2.266a3.83 3.83 0 00-1.548.323c-.491.215-.937.53-1.312.929l-4.48 4.748h2.384c.901 0 1.767-.372 2.412-1.038l4.81-4.962zm6.186 0h-2.266a3.83 3.83 0 00-1.548.323c-.491.215-.937.53-1.313.929l-4.483 4.748h2.384a3.36 3.36 0 002.413-1.038L208.351.49zm6.186 0h-2.266c-.53 0-1.054.11-1.543.325-.489.215-.933.53-1.308.927l-4.48 4.748h2.385c.901 0 1.767-.372 2.412-1.038l4.8-4.962zm6.185 0h-2.266a3.83 3.83 0 00-1.542.325c-.489.215-.934.53-1.308.927l-4.48 4.748h2.385c.901 0 1.767-.372 2.412-1.038L220.722.49zm6.186 0h-2.266a3.84 3.84 0 00-1.543.325c-.489.215-.933.53-1.307.927l-4.48 4.748h2.385c.901 0 1.766-.372 2.412-1.038L226.908.49zm6.186 0h-2.266c-.53 0-1.054.11-1.543.326a4.018 4.018 0 00-1.308.926l-4.48 4.748h2.385a3.36 3.36 0 002.413-1.038L233.094.49zm6.186 0h-2.267a3.83 3.83 0 00-1.542.325c-.489.215-.933.53-1.307.927l-4.5 4.748h2.384a3.36 3.36 0 002.413-1.038L239.28.49zm6.185 0h-2.266c-.529 0-1.053.11-1.543.325-.489.215-.933.53-1.307.927l-4.481 4.748h2.385c.901 0 1.767-.372 2.412-1.038l4.8-4.962zm6.186 0h-2.266c-.53 0-1.054.11-1.543.325-.489.215-.933.53-1.307.927l-4.48 4.748h2.384c.901 0 1.766-.372 2.412-1.038l4.8-4.962zm6.186 0h-2.266c-.53 0-1.054.11-1.543.325-.489.215-.934.53-1.308.927l-4.48 4.748h2.385c.901 0 1.766-.372 2.412-1.038l4.8-4.962zm6.185 0h-2.266c-.529 0-1.053.11-1.542.325-.489.215-.934.53-1.308.927l-4.48 4.748h2.385c.901 0 1.766-.372 2.412-1.038L264.022.49z" fill="#fff"/></g></g><defs><clipPath id="clip0_526_1815"><path fill="#fff" d="M0 0h148v7H0z"/></clipPath><clipPath id="clip1_526_1815"><path fill="#fff" transform="translate(0 .49)" d="M0 0h133.29v6H0z"/></clipPath><clipPath id="clip2_526_1815"><path fill="#fff" transform="translate(130.711 .49)" d="M0 0h133.29v6H0z"/></clipPath></defs></svg>
